X:1
T:Words by August Mahlmann
T:Hugo Wolf (1860-1903)
T:Gottvertrauen
T:Copyright © 2009 by the Choral Public Domain Library (http://www.cpdl.org) Edition may be freely distributed, duplicated, performed, or recorded.
Z:Copyright © 2009 by the Choral Public Domain Library (http://www.cpdl.org)
Z:Edition may be freely distributed, duplicated, performed, or recorded.
%%score [ 1 2 3 4 ]
L:1/8
Q:1/4=120
M:1/4
K:A
V:1 treble nm="S"
V:2 treble nm="A"
V:3 treble transpose=-12 nm="T"
V:4 bass nm="B"
V:1
 A2 |[M:3/4] c3 c ed | cB AA AA | d4 c2 | B4 z B | B3 B A=G | =G>A G2 GF/G/ | e4 =g2 | f>e ^d2 d2 | %9
w: 1. An|Him- mels- höh'n die|Ster- ne geh'n in fe- ster,|stil- ler|Bahn; der|Mensch, das schwa- che|Kind der Zeit, blickt zu der|ew'- gen|Herr- lich- keit mit|
w: 2. Durch|Wol- ken bricht der|Hoff- nung Licht zur Er- den-|welt her-|ab; wer's|auf- nahm in sein|from- mes Herz, der wan- delt|oh- ne|Furcht und Schmerz mit|
 e4 d2 | c4 Bd | c4 B2 |[M:2/4] A4 |] %13
w: glau- bens-|vol- lem _|Trost hin-|an.|
w: Gott- ver-|traun zum _|stil- len|Grab!|
V:2
 D2 |[M:3/4] E3 A BA | G^E FG F=E | F4 F2 | G4 z =G | =G3 =F FF | E>=F E2 E^D/E/ | =c4 c2 | %8
w: 1. An|Him- mels- höh'n die|Ster- ne geh'n in fe- ster,|stil- ler|Bahn; der|Mensch, das schwa- che|Kind der Zeit, blickt zu der|ew'- gen|
w: 2. Durch|Wol- ken bricht der|Hoff- nung Licht zur Er- den-|welt her-|ab; wer's|auf- nahm in sein|from- mes Herz, der wan- delt|oh- ne|
 ^B>c =B2 B2 | B4 B2 | A4 F2 | E4 D2 |[M:2/4] C4 |] %13
w: Herr- lich- keit mit|glau- bens-|vol- lem|Trost hin-|an.|
w: Furcht und Schmerz mit|Gott- ver-|traun zum|Stil- len|Grab!|
V:3
 F2 |[M:3/4] A3 e ef | cc cc dA | B4 A2 | B4 z B | B3 d dd | =c>c c2 cc/c/ | =g4 e2 | e>e f2 f2 | %9
w: 1. An|Him- mels- höh'n die|Ster- ne geh'n in fe- ster,|stil- ler|Bahn; der|Mensch, das schwa- che|Kind der Zeit, blickt zu der|ew'- gen|Herr- lich- keit mit|
w: 2. Durch|Wol- ken bricht der|Hoff- nung Licht zur Er- den-|welt her-|ab; wer's|auf- nahm in sein|from- mes Herz, der wan- delt|oh- ne|Furcht und Schmerz mit|
 e4 ^e2 | f4 d2 | A4 G2 |[M:2/4] A4 |] %13
w: glau- bens-|vol- lem|Trost hin-|an.|
w: Gott- ver-|traun zum|Stil- len|Grab!|
V:4
 D,2 |[M:3/4] A,,3 A, G,F, | ^E,G, F,=E, D,C, | B,,>C, D,2 ^D,2 | E,4 z E, | D,3 =G, G,G, | %6
w: 1. An|Him- mels- höh'n die|Ster- ne geh'n in fe- ster,|fes- ter, stil- ler|Bahn; der|Mensch, das schwa- che|
w: 2. Durch|Wol- ken bricht der|Hoff- nung Licht zur Er- den-|welt _ _ her-|ab; wer's|auf- nahm in sein|
 =C>C C2 CC/C/ | =C4 _B,2 | ^A,>A, B,2 =A,2 | G,4 G,2 | F,4 D,2 | E,4 E,2 |[M:2/4] A,4 |] %13
w: Kind der Zeit, blickt zu der|ew'- gen|Herr- lich- keit mit|glau- bens-|vol- lem|Trost hin-|an.|
w: from- mes Herz, der wan- delt|oh- ne|Furcht und Schmerz mit|Gott- ver-|traun zum|stil- len|Grab!|

